X:1
T:Cantata 147
T:J. Sebastian Bach
%%score [ 1 2 ]
L:1/8
Q:1/4=60
M:3/4
K:G
V:1 treble nm="I" snm="I"
V:2 treble nm="II" snm="II"
V:1
"^Lento"!p! (3z GA (3Bdc (3ced | (3dgf (3gdB (3GAB | (3cde (3dcB (3ABG | (3FGA (3DFA (3cBA | %4
!f! (3!breath!BGA (3Bdc (3ced | (3dgf (3gdB (3GAB | (3Edc (3BAG (3DG"^II volta rall."F | %7
!ff! (3GBd (3gdB !breath!!fermata!G2 |!mf! B4 c2 | d4 d2 | c4 B2 | (3!breath!A!p!DE (3FAG (3AcB | %12
 (3cAF (3DFA (3cBA | (3!breath!B!mf!GA (3Bdc (3ced | (3dgf (3gdB (3GAB | (3A2 B/c/ (3BAG (3DGF | %16
 (3!breath!G!p!BA (3Bdc (3ced!D.S.! |] %17
V:2
!p! G4 C2 | B2 E4 | A2 (3:2:2B2 G C2 | D4 F2 |!f! G4 C2 | B2 E4 | C2 ^C2 D2 |!ff! G6 | %8
!mf! G2 F2 E2 | D2 E2 F2 | E2 F2 G2 |!p! F2 D4 | D4 F2 |!mf! G4 C2 | B2 E4 | C4 D2 |!p! G4 C2 |] %17

